!!!COM:	la Rue, Pierre de
!!!CDT:	~1452///-1518/11/20
!!!OTL:	Il est bien heureux
!!!AGN:	Song; Chanson
!!!SCT:	Rue3011
!!!SCA:	Rue3011
!!!voices:	4
**kern	**kern	**kern	**kern
*staff4	*staff3	*staff2	*staff1
*Ivox	*Ivox	*Ivox	*Ivox
*I"Bassus	*I"Tenor	*I"Contra	*I"Discantus
*I'B	*I'T	*I'C	*I'D
*clefF4	*clefGv2	*clefG2	*clefG2
*k[]	*k[]	*k[]	*k[]
*M2/1	*M2/1	*M2/1	*M2/1
*met(C2)	*met(C2)	*met(C2)	*met(C2)
=1-	=1-	=1-	=1-
0r	1.d	0r	0r
.	4c\	.	.
.	4B\	.	.
=2.	=2	=2.	=2
0r	2c\	1r	0r
.	2.d\	.	.
.	.	[1a	.
.	4e\	.	.
.	[2f\	.	.
=3	=3	=3	=3
0r	2f\]	2a/]	0r
.	4e\	4g/	.
.	4d\	4f/	.
.	2e\	2g/	.
.	2f\	[2a/	.
=4.	=4	=4.	=4
0r	2d\	4a/]	1.a
.	.	4b\	.
.	2c\	1cc	.
.	1A	.	.
.	.	4b\	4g/
.	.	4a/	4f/
=5	=5	=5	=5
0r	1r	2b\	2g/
.	.	2cc\	2.a/
.	2r	1a	.
.	.	.	4b\
.	[2A/	.	[2cc\
=6.	=6	=6.	=6
0r	4A/]	1a	2cc\]
.	4B\	.	.
.	4c\	.	4b\
.	4d\	.	4a/
.	2B\	2g/	2b\
.	2A/	2a/	2cc\
=7	=7	=7	=7
1D	2.d\	2f/	2a/
.	.	2d/	2.dd\
.	4c\	.	.
1D	1A	1f	.
.	.	.	4ee\
.	.	.	2ff\
=8.	=8	=8.	=8
2C/	2r	2g/	2ee\
2.D\	1d	2f/	2ff\
.	.	1a	1dd
4E\	.	.	.
[2F\	4c\	.	.
.	4B\	.	.
=9	=9	=9	=9
2F\]	2A/	2r	2cc\
4E\	2f\	2a/	2dd\
4D\	.	.	.
2E\	2g\	2g/	2b\
2F\	[2a\	2f/	[2a/
=10.	=10	=10.	=10
1D	4a\]	[0a	2a/]
.	4g\	.	.
.	2f\	.	1dd
1A	1e	.	.
.	.	.	2cc#i\
=11	=11	=11	=11
0D	1f	0a]	1dd
.	1d	.	1r
=12.	=12	=12.	=12
2.A\	0e	0r	0cc
4G\	.	.	.
4A\	.	.	.
4B\	.	.	.
[2c\	.	.	.
=13	=13	=13	=13
4c\]	0r	0r	1cc
4B\	.	.	.
1A	.	.	.
.	.	.	1b
2G#i\	.	.	.
=14.	=14	=14.	=14
1A	0r	0cc	2cc\
.	.	.	1a
1A	.	.	.
.	.	.	[2cc\
=15	=15	=15	=15
0r	0r	1cc	4cc\]
.	.	.	4b\
.	.	.	1a
.	.	1b	.
.	.	.	2g#i/
=16.	=16	=16.	=16
0F	0r	2cc\	0a
.	.	1a	.
.	.	[2cc\	.
=17	=17	=17	=17
1F	0r	4cc\]	0r
.	.	4b\	.
.	.	1a	.
1E	.	.	.
.	.	2g#i/	.
=18.	=18	=18.	=18
2F\	0f	0a	0r
1D	.	.	.
[2F\	.	.	.
=19	=19	=19	=19
4F\]	1f	0r	0r
4E\	.	.	.
1D	.	.	.
.	1e	.	.
2C#i/	.	.	.
=20.	=20	=20.	=20
2.D\	2f\	0r	0r
.	1d	.	.
4E\	.	.	.
4F\	.	.	.
4G\	.	.	.
[2A\	[2f\	.	.
=21	=21	=21	=21
4A\]	4f\]	0r	0r
4G\	4e\	.	.
2F\	1d	.	.
1E	.	.	.
.	2c#i\	.	.
=22.	=22	=22.	=22
0D	[0d	0f	0a
=23	=23	=23	=23
1r	0d]	1f	1a
1D	.	1f	1a
=24.	=24	=24.	=24
1G	1r	1g	1b
1G	1d	1b	[1dd
=25	=25	=25	=25
0A	1f	0a	2dd\]
.	.	.	4cc\
.	.	.	4b\
.	2e\	.	1cc
.	[2a\	.	.
=26.	=26	=26.	=26
1A	2a\]	1a	1r
.	4g\	.	.
.	4f\	.	.
1A	1e	1a	1cc
=27	=27	=27	=27
0B-	0d	1f	1dd
.	.	2.f/	[1ff
.	.	4g/	.
=28.	=28	=28.	=28
1A	0r	4a/	2ff\]
.	.	4b\	.
.	.	2.cc\	2ee\
1c	.	.	[1ee
.	.	4b\	.
.	.	2a/	.
=29	=29	=29	=29
0B-i	0d	4b-i\	2ee\]
.	.	4a/	.
.	.	4g/	1dd
.	.	4f/	.
.	.	2.g/	.
.	.	.	4cc\
.	.	4f/	4b-i\
=30.	=30	=30.	=30
[0A	1e	[0a	0cc
.	2r	.	.
.	[2e\	.	.
=31	=31	=31	=31
0A]	2e\]	0a]	1cc
.	4d\	.	.
.	4c\	.	.
.	2e\	.	1cc
.	[2f\	.	.
=32.	=32	=32.	=32
1G	2f\]	0r	1b
.	1e	.	.
1F	.	.	1a
.	2d\	.	.
=33	=33	=33	=33
0E	0e	0r	1g
.	.	.	2r
.	.	.	[2ee\
=34.	=34	=34.	=34
0r	0r	0a	2ee\]
.	.	.	4dd\
.	.	.	4cc\
.	.	.	2ee\
.	.	.	[2ff\
=35	=35	=35	=35
0r	0r	1g	2ff\]
.	.	.	1ee
.	.	1f	.
.	.	.	2dd\
=36.	=36	=36.	=36
0r	0r	1e	1ee
.	.	2r	2ee\
.	.	[2a/	[2cc\
=37	=37	=37	=37
0r	0r	2a/]	2cc\]
.	.	4g/	4b\
.	.	4f/	4a/
.	.	2a/	2cc\
.	.	[2b\	[2dd\
=38.	=38	=38.	=38
0r	1r	2b\]	4dd\]
.	.	.	4cc\
.	.	1a	4b\
.	.	.	4a/
.	1e	.	1b
.	.	2g#i/	.
=39	=39	=39	=39
1r	1f	1a	1a
1A	2e\	1r	1a
.	[2f\	.	.
=40.	=40	=40.	=40
1A	2f\]	1a	1cc
.	4e\	.	.
.	4d\	.	.
1A	1e	1a	1cc
=41	=41	=41	=41
0D	1d	2.a/	2.dd\
.	.	4g/	4cc\
.	1f	4f/	4b\
.	.	4d/	4a/
.	.	2a/	2ff\
=42.	=42	=42.	=42
1G	2.g\	1b	2ee\
.	.	.	1dd
.	4f\	.	.
1A	1e	1a	.
.	.	.	2cc#i\
=43	=43	=43	=43
1B-i	0d	1f	1dd
1G	.	1g	1b
=44.	=44	=44.	=44
2r	2r	1a	1cc
2F\	2f\	.	.
2F\	2f\	2r	2r
2F\	2f\	2a/	2cc\
=45	=45	=45	=45
1A	1c	2a/	2cc\
.	.	2a/	2cc\
1G	1g	2b-i\	1dd
.	.	4a/	.
.	.	4g/	.
=46.	=46	=46.	=46
2r	2r	1f	1a
2F\	2a\	.	.
2E\	2g\	2r	2r
2F\	2f\	2a/	2cc\
=47	=47	=47	=47
2G\	1d	2g/	2b\
4F\	.	1a	2cc\
4E\	.	.	.
1D	[1d	.	2dd\
.	.	2g/	4cc\
.	.	.	4b\
=48.	=48	=48.	=48
4D\	1d]	2.f/	1a
4E\	.	.	.
4F\	.	.	.
4G\	.	4e/	.
1A	1c	[1e	4a/
.	.	.	4b\
.	.	.	4cc\
.	.	.	4dd\
=49	=49	=49	=49
1A	2.c\	1e]	1ee
.	4B\	.	.
2r	4c\	1r	1ee
.	4d\	.	.
[2A\	[2e\	.	.
=50.	=50	=50.	=50
2A\]	4e\]	0r	2r
.	4d\	.	.
4G\	4c#i\	.	2ee\
4F\	4B\	.	.
1E	1c#i	.	2ee\
.	.	.	2ee\
=51	=51	=51	=51
1D	0d	1a	0ff
2r	.	2a/	.
2d\	.	[2b-i\	.
=52.	=52	=52.	=52
1c	1r	2b-\]	1ee
.	.	1a	.
1B-i	2r	.	1dd
.	2d\	2g/	.
=53	=53	=53	=53
2A\	2e\	2.a/	2cc\
2d\	2f\	.	2ff\
.	.	4b-i\	.
2c\	4g\	4cc\	2ee\
.	4f\	4b-i\	.
2B-i\	4e\	4a/	2dd\
.	4d\	4g/	.
=54.	=54	=54.	=54
1.A	2e\	1a	2.cc\
.	1f	.	.
.	.	.	4b\
.	.	2a/	4cc\
.	.	.	4dd\
2c\	2e\	[2g/	[2ee\
=55	=55	=55	=55
2B-i\	2f\	4g/]	2ee\]
.	.	4a/	.
2G\	2g\	2b-i\	1dd
1A	1e	1a	.
.	.	.	2cc#i\
=56.	=56	=56.	=56
0Dl	0dl	0fl	0ddl
==	==	==	==
*-	*-	*-	*-
!!!RDF**kern: l=long note in original notation
!!!RDF**kern: i=editorial accidental
!!!ENC:	Chris Gage 06-17-2013
!!!END:	2013/08/06/
!!!EED:	Jesse Rodin
!!!EEV:	2013/08/06/
!!!ONB:	Translated from MusicXML and edited on 2013/08/06/ by Craig Sapp
!!muse2ps: C^@{COM}^i2I150v85,85,85,150Q16
